openmetadata-ui/src/main/resources/ui/src/assets/svg/policies.svg

<svg width="16" height="16" viewBox="0 0 16 16" fill="currentColor" xmlns="http://www.w3.org/2000/svg">
<path d="M12 16.0011C11.9333 16.0011 11.8667 15.9878 11.804 15.9611C11.6493 15.8951 8 14.3058 8 11.0371V8.35847C8 8.14447 8.136 7.95447 8.33933 7.88514L11.8393 6.69447C11.9433 6.65914 12.0567 6.65914 12.1607 6.69447L15.6607 7.88514C15.864 7.95447 16 8.14447 16 8.35847V11.0371C16 14.3058 12.3507 15.8951 12.196 15.9618C12.1333 15.9878 12.0667 16.0011 12 16.0011V16.0011ZM9 8.71647V11.0365C9 13.2585 11.304 14.5945 12 14.9465C12.696 14.5945 15 13.2585 15 11.0365V8.71647L12 7.6958L9 8.71647Z" fill="currentColor"/>
<path d="M11.8332 12.9987C11.7012 12.9987 11.5732 12.9467 11.4798 12.852L10.1465 11.5187C9.95117 11.3233 9.95117 11.0067 10.1465 10.8113C10.3418 10.616 10.6585 10.616 10.8538 10.8113L11.7798 11.7373L13.4332 9.53198C13.5972 9.31132 13.9118 9.26598 14.1332 9.43265C14.3538 9.59798 14.3985 9.91132 14.2325 10.1327L12.2325 12.7993C12.1458 12.9153 12.0132 12.9873 11.8678 12.998C11.8565 12.998 11.8452 12.9987 11.8332 12.9987Z" fill="currentColor"/>
<path d="M7.06 14H1.83333C0.822 14 0 13.178 0 12.1667V1.83333C0 0.822 0.822 0 1.83333 0H9.5C10.5113 0 11.3333 0.822 11.3333 1.83333V5.45333C11.3333 5.72933 11.1093 5.95333 10.8333 5.95333C10.5573 5.95333 10.3333 5.72933 10.3333 5.45333V1.83333C10.3333 1.374 9.95933 1 9.5 1H1.83333C1.374 1 1 1.374 1 1.83333V12.1667C1 12.626 1.374 13 1.83333 13H7.06C7.336 13 7.56 13.224 7.56 13.5C7.56 13.776 7.336 14 7.06 14Z" fill="currentColor"/>
<path d="M8.83333 6.33203H2.5C2.224 6.33203 2 6.10803 2 5.83203C2 5.55603 2.224 5.33203 2.5 5.33203H8.83333C9.10933 5.33203 9.33333 5.55603 9.33333 5.83203C9.33333 6.10803 9.10933 6.33203 8.83333 6.33203Z" fill="currentColor"/>
<path d="M6.16667 9H2.5C2.224 9 2 8.776 2 8.5C2 8.224 2.224 8 2.5 8H6.16667C6.44267 8 6.66667 8.224 6.66667 8.5C6.66667 8.776 6.44267 9 6.16667 9Z" fill="currentColor"/>
<path d="M5.5 3.66797H2.5C2.224 3.66797 2 3.44397 2 3.16797C2 2.89197 2.224 2.66797 2.5 2.66797H5.5C5.776 2.66797 6 2.89197 6 3.16797C6 3.44397 5.776 3.66797 5.5 3.66797Z" fill="currentColor"/>
</svg>

<svg xmlns="http://www.w3.org/2000/svg" width="16" height="16" fill="currentColor"><path d="M12 16.001a.5.5 0 0 1-.196-.04C11.649 15.895 8 14.306 8 11.037V8.358a.5.5 0 0 1 .34-.473l3.5-1.19a.5.5 0 0 1 .32 0l3.5 1.19a.5.5 0 0 1 .34.473v2.68c0 3.268-3.65 4.857-3.804 4.924a.512.512 0 0 1-.196.04ZM9 8.716v2.32c0 2.223 2.304 3.559 3 3.91.696-.351 3-1.688 3-3.91v-2.32l-3-1.02-3 1.02Z"/><path d="M11.833 12.999a.496.496 0 0 1-.353-.147l-1.334-1.333a.5.5 0 0 1 .708-.708l.926.926 1.653-2.205a.499.499 0 1 1 .8.6l-2 2.667a.5.5 0 0 1-.365.199h-.035ZM7.06 14H1.833A1.835 1.835 0 0 1 0 12.167V1.833C0 .822.822 0 1.833 0H9.5c1.011 0 1.833.822 1.833 1.833v3.62a.5.5 0 0 1-1 0v-3.62A.834.834 0 0 0 9.5 1H1.833A.834.834 0 0 0 1 1.833v10.334c0 .459.374.833.833.833H7.06a.5.5 0 0 1 0 1Z"/><path d="M8.833 6.332H2.5a.5.5 0 0 1 0-1h6.333a.5.5 0 0 1 0 1ZM6.167 9H2.5a.5.5 0 0 1 0-1h3.667a.5.5 0 0 1 0 1ZM5.5 3.668h-3a.5.5 0 0 1 0-1h3a.5.5 0 0 1 0 1Z"/></svg>
